**kern	**silbe	**kern	**silbe	**kern	**silbe	**harmony	**phrase	**leadinstrument	**rhyme	**timestamp	**harte
*ICvox	*	*ICvox	*	*ICvox	*	*M4/4	*	*	*	*	*M4/4
*VRlead	*	*VRharmonize	*	*VRharmonize	*	*	*	*	*	*	*
*Hstimme	*	*Nstimme	*	*Nstimme	*	*	*	*	*	*	*
*G:	*	*G:	*	*G:	*	*G:	*	*	*	*	*G:
*M4/4	*	*M4/4	*	*M4/4	*	*	*	*	*	*	*
*clefG2	*	*clefG2	*	*clefG2	*	*	*	*	*	*	*
r;	.	r;	.	r;	.	1r;	.	r	.	0	N.C.
=1	=1	=1	=1	=1	=1	=1	=1	=1	=1	=1	=1
*>Letter>A	*>Letter>A	*>Letter>A	*>Letter>A	*>Letter>A	*>Letter>A	*>Letter>A	*>Letter>A	*>Letter>A	*>Letter>A	*>Letter>A	*>Letter>A
*>Label>Intro	*>Label>Intro	*>Label>Intro	*>Label>Intro	*>Label>Intro	*>Label>Intro	*>Label>Intro	*>Label>Intro	*>Label>Intro	*>Label>Intro	*>Label>Intro	*>Label>Intro
1r	.	1r	.	1r	.	1N	newline	r	.	0.424	N.C.
=2	=2	=2	=2	=2	=2	=2	=2	=2	=2	=2	=2
1r	.	1r	.	1r	.	1N	.	r	.	2.618	N.C.
=3	=3	=3	=3	=3	=3	=3	=3	=3	=3	=3	=3
1r	.	1r	.	1r	.	1N	.	r	.	4.812	N.C.
=4	=4	=4	=4	=4	=4	=4	=4	=4	=4	=4	=4
1r	.	1r	.	1r	.	1N	.	r	.	7.006	N.C.
=5	=5	=5	=5	=5	=5	=5	=5	=5	=5	=5	=5
1r	.	1r	.	1r	.	1GM	newline	r	.	9.2	G:maj
=6	=6	=6	=6	=6	=6	=6	=6	=6	=6	=6	=6
1r	.	1r	.	1r	.	1GM	.	r	.	11.322	G:maj
=7	=7	=7	=7	=7	=7	=7	=7	=7	=7	=7	=7
1r	.	1r	.	1r	.	1GM	.	r	.	13.445	G:maj
=8	=8	=8	=8	=8	=8	=8	=8	=8	=8	=8	=8
2r	.	1r	.	1r	.	1GM	.	r	.	15.567	G:maj
4.r	.	.	.	.	.	.	.	.	.	.	.
8G	I	.	.	.	.	.	.	.	.	.	.
=9	=9	=9	=9	=9	=9	=9	=9	=9	=9	=9	=9
*>Letter>B	*>Letter>B	*>Letter>B	*>Letter>B	*>Letter>B	*>Letter>B	*>Letter>B	*>Letter>B	*>Letter>B	*>Letter>B	*>Letter>B	*>Letter>B
*>Label>Verse	*>Label>Verse	*>Label>Verse	*>Label>Verse	*>Label>Verse	*>Label>Verse	*>Label>Verse	*>Label>Verse	*>Label>Verse	*>Label>Verse	*>Label>Verse	*>Label>Verse
8B	met	1r	.	1r	.	1GM	newline	voice	.	17.69	G:maj
8G	a	.	.	.	.	.	.	.	.	.	.
4r	.	.	.	.	.	.	.	.	.	.	.
8G	gin	.	.	.	.	.	.	.	.	.	.
4G	soaked	.	.	.	.	.	.	.	.	.	.
[8B	bar-	.	.	.	.	.	.	.	.	.	.
=10	=10	=10	=10	=10	=10	=10	=10	=10	=10	=10	=10
8B]	_	2r	.	1r	.	1GM	.	voice	.	19.78	G:maj
8A	-room	.	.	.	.	.	.	.	.	.	.
8G	_	.	.	.	.	.	.	.	.	.	.
4G	queen	.	.	.	.	.	.	.	A	.	.
.	.	4.r	.	.	.	.	.	.	.	.	.
8G	in	.	.	.	.	.	.	.	.	.	.
8E	_	.	.	.	.	.	.	.	.	.	.
8E	Mem-	8E	Mem-	.	.	.	.	.	.	.	.
=11	=11	=11	=11	=11	=11	=11	=11	=11	=11	=11	=11
2G	-phis	4G	-phis	1r	.	2.CM	.	voice	.	21.869	C:maj
.	.	4r	.	.	.	.	.	.	.	.	.
2r	.	2r	.	.	.	.	.	.	.	.	.
.	.	.	.	.	.	4CM	.	voice	.	23.437	C:sus4
=12	=12	=12	=12	=12	=12	=12	=12	=12	=12	=12	=12
2r	.	1r	.	1r	.	1CM	.	voice	.	23.959	C:maj
4.r	.	.	.	.	.	.	.	.	.	.	.
8G	She	.	.	.	.	.	.	.	.	.	.
=13	=13	=13	=13	=13	=13	=13	=13	=13	=13	=13	=13
8B	tried	1r	.	1r	.	1GM	newline	voice	.	26.049	G:maj
8A	_	.	.	.	.	.	.	.	.	.	.
8G	to	.	.	.	.	.	.	.	.	.	.
8A	take	.	.	.	.	.	.	.	.	.	.
8G	_	.	.	.	.	.	.	.	.	.	.
8G	me	.	.	.	.	.	.	.	.	.	.
8r	.	.	.	.	.	.	.	.	.	.	.
[8B	up-	.	.	.	.	.	.	.	.	.	.
=14	=14	=14	=14	=14	=14	=14	=14	=14	=14	=14	=14
8B]	_	2r	.	1r	.	1AM	.	voice	.	28.124	A:maj
8A	-stairs	.	.	.	.	.	.	.	.	.	.
4G	_	.	.	.	.	.	.	.	.	.	.
8G	for	4.r	.	.	.	.	.	.	.	.	.
4G	a	.	.	.	.	.	.	.	.	.	.
[8A	ride	[8A	ride	.	.	.	.	.	B	.	.
=15	=15	=15	=15	=15	=15	=15	=15	=15	=15	=15	=15
4A]	_	4A]	_	1r	.	2.DM	.	voice	.	30.2	D:maj
4r	.	4r	.	.	.	.	.	.	.	.	.
2r	.	2r	.	.	.	.	.	.	.	.	.
.	.	.	.	.	.	4DM	.	voice	.	31.757	D:sus4
=16	=16	=16	=16	=16	=16	=16	=16	=16	=16	=16	=16
2r	.	1r	.	1r	.	1DM	.	voice	.	32.276	D:maj
4.r	.	.	.	.	.	.	.	.	.	.	.
8G	She	.	.	.	.	.	.	.	.	.	.
=17	=17	=17	=17	=17	=17	=17	=17	=17	=17	=17	=17
8B	had	1r	.	1r	.	1GM	newline	voice	.	34.351	G:maj
8G	to	.	.	.	.	.	.	.	.	.	.
4r	.	.	.	.	.	.	.	.	.	.	.
4G	heave	.	.	.	.	.	.	.	A	.	.
8G	me	.	.	.	.	.	.	.	.	.	.
[8B	right	.	.	.	.	.	.	.	.	.	.
=18	=18	=18	=18	=18	=18	=18	=18	=18	=18	=18	=18
8B]	_	2r	.	1r	.	1GM	.	voice	.	36.408	G:maj
4A	a-	.	.	.	.	.	.	.	.	.	.
4G	-cross	.	.	.	.	.	.	.	.	.	.
.	.	4.r	.	.	.	.	.	.	.	.	.
4G	her	.	.	.	.	.	.	.	.	.	.
[8E	shoul-	[8E	shoul-	.	.	.	.	.	.	.	.
=19	=19	=19	=19	=19	=19	=19	=19	=19	=19	=19	=19
8E]	_	8E]	_	1r	.	2.CM	.	voice	.	38.465	C:maj
4.G	-der	4.G	-der	.	.	.	.	.	.	.	.
2r	.	2r	.	.	.	.	.	.	.	.	.
.	.	.	.	.	.	4CM	.	voice	.	40.008	C:sus4
=20	=20	=20	=20	=20	=20	=20	=20	=20	=20	=20	=20
2r	.	2r	.	1r	.	1CM	.	voice	.	40.522	C:maj
8r	.	8r	.	.	.	.	.	.	.	.	.
8G	'Cause	8G	'Cause	.	.	.	.	.	.	.	.
8G	I	8G	I	.	.	.	.	.	.	.	.
[8g	just	[8g	just	.	.	.	.	.	.	.	.
=21	=21	=21	=21	=21	=21	=21	=21	=21	=21	=21	=21
8g]	_	8g]	_	1r	.	1GM	newline	voice	.	42.58	G:maj
4g	can't	4g	can't	.	.	.	.	.	.	.	.
4B-	seem	4g	seem	.	.	.	.	.	A	.	.
8G	to	8g	to	.	.	.	.	.	.	.	.
4r	.	4r	.	.	.	.	.	.	.	.	.
=22	=22	=22	=22	=22	=22	=22	=22	=22	=22	=22	=22
4d	drink	8f	drink	1r	.	1DM	.	voice	A	44.602	D:maj
.	.	8e	_	.	.	.	.	.	.	.	.
8G	her	8d	her	.	.	.	.	.	.	.	.
4g	off	4g	off	.	.	.	.	.	.	.	.
8B-	my	4g	my	.	.	.	.	.	.	.	.
8A	_	.	.	.	.	.	.	.	.	.	.
[8G	mind	[8g	mind	.	.	.	.	.	B	.	.
=23	=23	=23	=23	=23	=23	=23	=23	=23	=23	=23	=23
4G]	_	4g]	_	1r	.	1GM	.	voice	.	46.624	G:maj
4r	.	4r	.	.	.	.	.	.	.	.	.
2r	.	2r	.	.	.	.	.	.	.	.	.
=24	=24	=24	=24	=24	=24	=24	=24	=24	=24	=24	=24
2r	.	2r	.	1r	.	1GM	.	voice	.	48.647	G:maj
8r	.	8r	.	.	.	.	.	.	.	.	.
8g	It's	8G	It's	.	.	.	.	.	.	.	.
8g	a	8G	a	.	.	.	.	.	.	.	.
[8b	hon-	[8g	hon-	.	.	.	.	.	.	.	.
=25	=25	=25	=25	=25	=25	=25	=25	=25	=25	=25	=25
*>Letter>C	*>Letter>C	*>Letter>C	*>Letter>C	*>Letter>C	*>Letter>C	*>Letter>C	*>Letter>C	*>Letter>C	*>Letter>C	*>Letter>C	*>Letter>C
*>Label>Chorus	*>Label>Chorus	*>Label>Chorus	*>Label>Chorus	*>Label>Chorus	*>Label>Chorus	*>Label>Chorus	*>Label>Chorus	*>Label>Chorus	*>Label>Chorus	*>Label>Chorus	*>Label>Chorus
2b_	_	2g_	_	1r	.	1GM	newline	voice	.	50.669	G:maj
8b]	_	8g]	_	.	.	.	.	.	.	.	.
8a	_	8e	_	.	.	.	.	.	.	.	.
8g	_	8c	_	.	.	.	.	.	.	.	.
8e#	_	8c#	_	.	.	.	.	.	.	.	.
=26	=26	=26	=26	=26	=26	=26	=26	=26	=26	=26	=26
[2f#	_	[2d	_	1r	.	1DM	.	voice	.	52.686	D:maj
8f#]	_	8d]	_	.	.	.	.	.	.	.	.
8g	-ky	8d	-ky	.	.	.	.	.	.	.	.
4g	tonk	4B-	tonk	.	.	.	.	.	.	.	.
=27	=27	=27	=27	=27	=27	=27	=27	=27	=27	=27	=27
16b	wo-	16G	wo-	1r	.	1GM	.	voice	.	54.702	G:maj
8.b	-man	8.G	-man	.	.	.	.	.	.	.	.
4r	.	4r	.	.	.	.	.	.	.	.	.
2r	.	2r	.	.	.	.	.	.	.	.	.
=28	=28	=28	=28	=28	=28	=28	=28	=28	=28	=28	=28
1r	.	1r	.	1r	.	1GM	.	voice	.	56.718	G:maj
=29	=29	=29	=29	=29	=29	=29	=29	=29	=29	=29	=29
8b	Give	8g	Give	1r	.	1GM	newline	voice	.	58.735	G:maj
4.b	me	4.g	me	.	.	.	.	.	.	.	.
8g	Give	8d	Give	.	.	.	.	.	.	.	.
4g	me	4d	me	.	.	.	.	.	.	.	.
8r	.	8r	.	.	.	.	.	.	.	.	.
=30	=30	=30	=30	=30	=30	=30	=30	=30	=30	=30	=30
8f#	Give	8d	Give	1r	.	1DM	.	voice	.	60.706	D:maj
4f#	me	4d	me	.	.	.	.	.	.	.	.
8f#	the	8d	the	.	.	.	.	.	.	.	.
8f#	hon-	8d	hon-	.	.	.	.	.	.	.	.
8f#	-ky	8d	-ky	.	.	.	.	.	.	.	.
4d	tonk	8B-	tonk	.	.	.	.	.	.	.	.
.	.	8A	_	.	.	.	.	.	.	.	.
=31	=31	=31	=31	=31	=31	=31	=31	=31	=31	=31	=31
4d	blues	4G	blues	1r	.	1GM	.	voice	.	62.678	G:maj
4r	.	4r	.	.	.	.	.	.	.	.	.
2r	.	2r	.	.	.	.	.	.	.	.	.
=32	=32	=32	=32	=32	=32	=32	=32	=32	=32	=32	=32
2r	.	1r	.	1r	.	1GM	.	voice	.	64.649	G:maj
4.r	.	.	.	.	.	.	.	.	.	.	.
8G	I	.	.	.	.	.	.	.	.	.	.
=33	=33	=33	=33	=33	=33	=33	=33	=33	=33	=33	=33
*>Letter>B	*>Letter>B	*>Letter>B	*>Letter>B	*>Letter>B	*>Letter>B	*>Letter>B	*>Letter>B	*>Letter>B	*>Letter>B	*>Letter>B	*>Letter>B
*>Label>Verse	*>Label>Verse	*>Label>Verse	*>Label>Verse	*>Label>Verse	*>Label>Verse	*>Label>Verse	*>Label>Verse	*>Label>Verse	*>Label>Verse	*>Label>Verse	*>Label>Verse
8B	laid	1r	.	1r	.	1GM	newline	voice	.	66.62	G:maj
8G	a	.	.	.	.	.	.	.	.	.	.
4r	.	.	.	.	.	.	.	.	.	.	.
8G	di-	.	.	.	.	.	.	.	.	.	.
4G	-vor-	.	.	.	.	.	.	.	.	.	.
[8B	-cee	.	.	.	.	.	.	.	A	.	.
=34	=34	=34	=34	=34	=34	=34	=34	=34	=34	=34	=34
8B]	_	2r	.	1r	.	1GM	.	voice	.	68.62	G:maj
8A	in	.	.	.	.	.	.	.	.	.	.
8G	_	.	.	.	.	.	.	.	.	.	.
4G	New	.	.	.	.	.	.	.	.	.	.
.	.	4.r	.	.	.	.	.	.	.	.	.
4G	York	.	.	.	.	.	.	.	.	.	.
8E	ci-	8E	ci-	.	.	.	.	.	.	.	.
=35	=35	=35	=35	=35	=35	=35	=35	=35	=35	=35	=35
2G	-ty	4G	-ty	1r	.	2.CM	.	voice	A	70.62	C:maj
.	.	4r	.	.	.	.	.	.	.	.	.
2r	.	2r	.	.	.	.	.	.	.	.	.
.	.	.	.	.	.	4CM	.	voice	.	72.12	C:sus4
=36	=36	=36	=36	=36	=36	=36	=36	=36	=36	=36	=36
2r	.	1r	.	1r	.	1CM	.	voice	.	72.62	C:maj
4.r	.	.	.	.	.	.	.	.	.	.	.
8G	I	.	.	.	.	.	.	.	.	.	.
=37	=37	=37	=37	=37	=37	=37	=37	=37	=37	=37	=37
8B	had	1r	.	1r	.	1GM	newline	voice	.	74.62	G:maj
8d	to	.	.	.	.	.	.	.	.	.	.
4r	.	.	.	.	.	.	.	.	.	.	.
8B	put	.	.	.	.	.	.	.	.	.	.
8A	_	.	.	.	.	.	.	.	.	.	.
8G	up	.	.	.	.	.	.	.	.	.	.
[8B	some	.	.	.	.	.	.	.	.	.	.
=38	=38	=38	=38	=38	=38	=38	=38	=38	=38	=38	=38
8B]	_	2r	.	1r	.	1AM	.	voice	.	76.61	A:maj
8B	kind	.	.	.	.	.	.	.	.	.	.
4G	_	.	.	.	.	.	.	.	.	.	.
8G	of	4.r	.	.	.	.	.	.	.	.	.
4G	a	.	.	.	.	.	.	.	.	.	.
[8A	fight	[8A	fight	.	.	.	.	.	B	.	.
=39	=39	=39	=39	=39	=39	=39	=39	=39	=39	=39	=39
4A]	_	4A]	_	1r	.	2.DM	.	voice	.	78.6	D:maj
4r	.	4r	.	.	.	.	.	.	.	.	.
2r	.	2r	.	.	.	.	.	.	.	.	.
.	.	.	.	.	.	4DM	.	voice	.	80.092	D:sus4
=40	=40	=40	=40	=40	=40	=40	=40	=40	=40	=40	=40
2r	.	1r	.	1r	.	1DM	.	voice	.	80.59	D:maj
4.r	.	.	.	.	.	.	.	.	.	.	.
8G	The	.	.	.	.	.	.	.	.	.	.
=41	=41	=41	=41	=41	=41	=41	=41	=41	=41	=41	=41
8B	la-	1r	.	1r	.	1GM	newline	voice	.	82.58	G:maj
8G	-dy	.	.	.	.	.	.	.	a	.	.
4r	.	.	.	.	.	.	.	.	.	.	.
8G	then	.	.	.	.	.	.	.	.	.	.
4G	she	.	.	.	.	.	.	.	a	.	.
[8B	co-	.	.	.	.	.	.	.	.	.	.
=42	=42	=42	=42	=42	=42	=42	=42	=42	=42	=42	=42
8B]	_	2r	.	1r	.	1GM	.	voice	.	84.573	G:maj
4A	-vered	.	.	.	.	.	.	.	.	.	.
4G	me	.	.	.	.	.	.	.	A	.	.
.	.	4.r	.	.	.	.	.	.	.	.	.
4G	in	.	.	.	.	.	.	.	.	.	.
[8E	ro-	[8E	ro-	.	.	.	.	.	.	.	.
=43	=43	=43	=43	=43	=43	=43	=43	=43	=43	=43	=43
8E]	_	8E]	_	1r	.	2.CM	.	voice	.	86.566	C:maj
4.G	-ses	4.G	-ses	.	.	.	.	.	.	.	.
2r	.	2r	.	.	.	.	.	.	.	.	.
.	.	.	.	.	.	4CM	.	voice	.	88.061	C:sus4
=44	=44	=44	=44	=44	=44	=44	=44	=44	=44	=44	=44
2r	.	2r	.	1r	.	1CM	.	voice	.	88.56	C:maj
4.r	.	4.r	.	.	.	.	.	.	.	.	.
8G	She	8G	She	.	.	.	.	.	A	.	.
=45	=45	=45	=45	=45	=45	=45	=45	=45	=45	=45	=45
8g	blew	8g	blew	1r	.	1GM	newline	voice	.	90.553	G:maj
4g	my	4g	my	.	.	.	.	.	.	.	.
8B-	nose	4g	nose	.	.	.	.	.	.	.	.
8A	_	.	.	.	.	.	.	.	.	.	.
8G	and	8g	and	.	.	.	.	.	.	.	.
4r	.	4r	.	.	.	.	.	.	.	.	.
=46	=46	=46	=46	=46	=46	=46	=46	=46	=46	=46	=46
4d	then	8f	then	1r	.	1DM	.	voice	.	92.537	D:maj
.	.	8e	_	.	.	.	.	.	.	.	.
8G	she	8d	she	.	.	.	.	.	a	.	.
4B-	blew	4g	blew	.	.	.	.	.	.	.	.
8A	my	4g	my	.	.	.	.	.	.	.	.
8G	_	.	.	.	.	.	.	.	.	.	.
[8G	mind	[8g	mind	.	.	.	.	.	B	.	.
=47	=47	=47	=47	=47	=47	=47	=47	=47	=47	=47	=47
4G]	_	8g]	_	1r	.	1GM	.	voice	.	94.521	G:maj
.	.	4.r	.	.	.	.	.	.	.	.	.
4r	.	.	.	.	.	.	.	.	.	.	.
2r	.	2r	.	.	.	.	.	.	.	.	.
=48	=48	=48	=48	=48	=48	=48	=48	=48	=48	=48	=48
2r	.	2r	.	1r	.	1GM	.	voice	.	96.506	G:maj
8r	.	8r	.	.	.	.	.	.	.	.	.
8g	It's	8g	It's	.	.	.	.	.	.	.	.
8g	a	8g	a	.	.	.	.	.	.	.	.
[8b	hon-	[8g	hon-	.	.	.	.	.	.	.	.
=49	=49	=49	=49	=49	=49	=49	=49	=49	=49	=49	=49
*>Letter>C	*>Letter>C	*>Letter>C	*>Letter>C	*>Letter>C	*>Letter>C	*>Letter>C	*>Letter>C	*>Letter>C	*>Letter>C	*>Letter>C	*>Letter>C
*>Label>Chorus	*>Label>Chorus	*>Label>Chorus	*>Label>Chorus	*>Label>Chorus	*>Label>Chorus	*>Label>Chorus	*>Label>Chorus	*>Label>Chorus	*>Label>Chorus	*>Label>Chorus	*>Label>Chorus
2b_	_	2g_	_	1r	.	1GM	newline	voice	.	98.49	G:maj
8b]	_	8g]	_	.	.	.	.	.	.	.	.
8a	_	8e	_	.	.	.	.	.	.	.	.
8g	_	8c	_	.	.	.	.	.	.	.	.
8e#	_	8c#	_	.	.	.	.	.	.	.	.
=50	=50	=50	=50	=50	=50	=50	=50	=50	=50	=50	=50
[2f#	_	[2d	_	1r	.	1DM	.	voice	.	100.461	D:maj
8f#]	_	8d]	_	.	.	.	.	.	.	.	.
8g	-ky	8d	-ky	.	.	.	.	.	.	.	.
4g	tonk	4B-	tonk	.	.	.	.	.	.	.	.
=51	=51	=51	=51	=51	=51	=51	=51	=51	=51	=51	=51
16b	wo-	16G	wo-	1r	.	1GM	.	voice	.	102.433	G:maj
8.b	-man	8.G	-man	.	.	.	.	.	.	.	.
4r	.	4r	.	.	.	.	.	.	.	.	.
2r	.	2r	.	.	.	.	.	.	.	.	.
=52	=52	=52	=52	=52	=52	=52	=52	=52	=52	=52	=52
1r	.	1r	.	1r	.	1GM	.	voice	.	104.404	G:maj
=53	=53	=53	=53	=53	=53	=53	=53	=53	=53	=53	=53
8b	Give	8g	Give	1r	.	1GM	newline	voice	.	106.376	G:maj
4.b	me	4.g	me	.	.	.	.	.	.	.	.
8g	Give	8d	Give	.	.	.	.	.	.	.	.
4g	me	4d	me	.	.	.	.	.	.	.	.
8r	.	8r	.	.	.	.	.	.	.	.	.
=54	=54	=54	=54	=54	=54	=54	=54	=54	=54	=54	=54
8f#	Give	8d	Give	1r	.	1DM	.	voice	.	108.329	D:maj
4f#	me	4d	me	.	.	.	.	.	.	.	.
8f#	the	8d	the	.	.	.	.	.	.	.	.
8f#	hon-	8d	hon-	.	.	.	.	.	.	.	.
8f#	-ky	8d	-ky	.	.	.	.	.	.	.	.
4d	tonk	8B-	tonk	.	.	.	.	.	.	.	.
.	.	8A	_	.	.	.	.	.	.	.	.
=55	=55	=55	=55	=55	=55	=55	=55	=55	=55	=55	=55
4d	blues	4G	blues	1r	.	1GM	.	voice	.	110.282	G:maj
4r	.	4r	.	.	.	.	.	.	.	.	.
8r	.	2r	.	.	.	.	.	.	.	.	.
4g	Yeah	.	.	.	.	.	.	.	.	.	.
[8g	al-	.	.	.	.	.	.	.	.	.	.
=56	=56	=56	=56	=56	=56	=56	=56	=56	=56	=56	=56
4.g]	_	1r	.	1r	.	1GM	.	voice	.	112.235	G:maj
8g	-right!	.	.	.	.	.	.	.	.	.	.
2r	.	.	.	.	.	.	.	.	.	.	.
=57	=57	=57	=57	=57	=57	=57	=57	=57	=57	=57	=57
*>Letter>B	*>Letter>B	*>Letter>B	*>Letter>B	*>Letter>B	*>Letter>B	*>Letter>B	*>Letter>B	*>Letter>B	*>Letter>B	*>Letter>B	*>Letter>B
*>Label>Solo	*>Label>Solo	*>Label>Solo	*>Label>Solo	*>Label>Solo	*>Label>Solo	*>Label>Solo	*>Label>Solo	*>Label>Solo	*>Label>Solo	*>Label>Solo	*>Label>Solo
1r	.	1r	.	1r	.	1GM	newline	guitar	.	114.189	G:maj
=58	=58	=58	=58	=58	=58	=58	=58	=58	=58	=58	=58
1r	.	1r	.	1r	.	1GM	.	guitar	.	116.139	G:maj
=59	=59	=59	=59	=59	=59	=59	=59	=59	=59	=59	=59
1r	.	1r	.	1r	.	2.CM	.	guitar	.	118.09	C:maj
.	.	.	.	.	.	4CM	.	guitar	.	119.553	C:sus4
=60	=60	=60	=60	=60	=60	=60	=60	=60	=60	=60	=60
1r	.	1r	.	1r	.	1CM	.	guitar	.	120.041	C:maj
=61	=61	=61	=61	=61	=61	=61	=61	=61	=61	=61	=61
1r	.	1r	.	1r	.	1GM	newline	guitar	.	121.992	G:maj
=62	=62	=62	=62	=62	=62	=62	=62	=62	=62	=62	=62
1r	.	1r	.	1r	.	1AM	.	guitar	.	123.933	A:maj
=63	=63	=63	=63	=63	=63	=63	=63	=63	=63	=63	=63
1r	.	1r	.	1r	.	2.DM	.	guitar	.	125.873	D:maj
.	.	.	.	.	.	4DM	.	guitar	.	127.329	D:sus4
=64	=64	=64	=64	=64	=64	=64	=64	=64	=64	=64	=64
1r	.	1r	.	1r	.	1DM	.	guitar	.	127.814	D:maj
=65	=65	=65	=65	=65	=65	=65	=65	=65	=65	=65	=65
1r	.	1r	.	1r	.	1GM	newline	guitar	.	129.755	G:maj
=66	=66	=66	=66	=66	=66	=66	=66	=66	=66	=66	=66
1r	.	1r	.	1r	.	1GM	.	guitar	.	131.7	G:maj
=67	=67	=67	=67	=67	=67	=67	=67	=67	=67	=67	=67
1r	.	1r	.	1r	.	2.CM	.	guitar	.	133.645	C:maj
.	.	.	.	.	.	4CM	.	guitar	.	135.104	C:sus4
=68	=68	=68	=68	=68	=68	=68	=68	=68	=68	=68	=68
1r	.	1r	.	1r	.	1CM	.	guitar	.	135.59	C:maj
=69	=69	=69	=69	=69	=69	=69	=69	=69	=69	=69	=69
1r	.	1r	.	1r	.	1GM	newline	guitar	.	137.535	G:maj
=70	=70	=70	=70	=70	=70	=70	=70	=70	=70	=70	=70
1r	.	1r	.	1r	.	1DM	.	guitar	.	139.465	D:maj
=71	=71	=71	=71	=71	=71	=71	=71	=71	=71	=71	=71
1r	.	1r	.	1r	.	1GM	.	guitar	.	141.395	G:maj
=72	=72	=72	=72	=72	=72	=72	=72	=72	=72	=72	=72
2r	.	2r	.	1r	.	1GM	.	guitar	.	143.326	G:maj
8r	.	8r	.	.	.	.	.	.	.	.	.
8g	It's	8g	It's	.	.	.	.	.	.	.	.
8g	a	8g	a	.	.	.	.	.	.	.	.
[8b	hon-	[8g	hon-	.	.	.	.	.	.	.	.
=73	=73	=73	=73	=73	=73	=73	=73	=73	=73	=73	=73
*>Letter>C	*>Letter>C	*>Letter>C	*>Letter>C	*>Letter>C	*>Letter>C	*>Letter>C	*>Letter>C	*>Letter>C	*>Letter>C	*>Letter>C	*>Letter>C
*>Label>Chorus	*>Label>Chorus	*>Label>Chorus	*>Label>Chorus	*>Label>Chorus	*>Label>Chorus	*>Label>Chorus	*>Label>Chorus	*>Label>Chorus	*>Label>Chorus	*>Label>Chorus	*>Label>Chorus
2b_	_	2g_	_	4.B	Hon-	1GM	newline	voice	.	145.256	G:maj
.	.	.	.	8G	-ky	.	.	.	.	.	.
8b]	_	8g]	_	4G	tonk	.	.	.	.	.	.
8a	_	8e	_	.	.	.	.	.	.	.	.
8g	_	8c	_	4r	.	.	.	.	.	.	.
8e#	_	8c#	_	.	.	.	.	.	.	.	.
=74	=74	=74	=74	=74	=74	=74	=74	=74	=74	=74	=74
[2f#	_	[2d	_	4.A	Hon-	1DM	.	voice	.	147.199	D:maj
.	.	.	.	8F#	-ky	.	.	.	.	.	.
8f#]	_	8d]	_	2F#	tonk	.	.	.	.	.	.
8g	-ky	8d	-ky	.	.	.	.	.	.	.	.
4g	tonk	4B-	tonk	.	.	.	.	.	.	.	.
=75	=75	=75	=75	=75	=75	=75	=75	=75	=75	=75	=75
16b	wo-	16G	wo-	1r	.	1GM	.	voice	.	149.142	G:maj
8.b	-man	8.G	-man	.	.	.	.	.	.	.	.
4r	.	4r	.	.	.	.	.	.	.	.	.
2r	.	2r	.	.	.	.	.	.	.	.	.
=76	=76	=76	=76	=76	=76	=76	=76	=76	=76	=76	=76
1r	.	1r	.	1r	.	1GM	.	voice	.	151.085	G:maj
=77	=77	=77	=77	=77	=77	=77	=77	=77	=77	=77	=77
8b	Give	8g	Give	1r	.	1GM	newline	voice	.	153.029	G:maj
4.b	me	4.g	me	.	.	.	.	.	.	.	.
8g	Give	8d	Give	.	.	.	.	.	.	.	.
4g	me	4d	me	.	.	.	.	.	.	.	.
8r	.	8r	.	.	.	.	.	.	.	.	.
=78	=78	=78	=78	=78	=78	=78	=78	=78	=78	=78	=78
8f#	Give	8d	Give	1r	.	1DM	.	voice	.	154.951	D:maj
4f#	me	4d	me	.	.	.	.	.	.	.	.
8f#	the	8d	the	.	.	.	.	.	.	.	.
8f#	hon-	8d	hon-	.	.	.	.	.	.	.	.
8f#	-ky	8d	-ky	.	.	.	.	.	.	.	.
4d	tonk	8B-	tonk	.	.	.	.	.	.	.	.
.	.	8A	_	.	.	.	.	.	.	.	.
=79	=79	=79	=79	=79	=79	=79	=79	=79	=79	=79	=79
4d	blues	4G	blues	1r	.	1GM	.	voice	.	156.873	G:maj
4r	.	4r	.	.	.	.	.	.	.	.	.
8r	.	2r	.	.	.	.	.	.	.	.	.
4g	Yeah	.	.	.	.	.	.	.	.	.	.
8G	now!	.	.	.	.	.	.	.	.	.	.
=80	=80	=80	=80	=80	=80	=80	=80	=80	=80	=80	=80
2r	.	2r	.	1r	.	1GM	.	voice	.	158.796	G:maj
8r	.	8r	.	.	.	.	.	.	.	.	.
8g	It's	8g	It's	.	.	.	.	.	.	.	.
8g	a	8g	a	.	.	.	.	.	.	.	.
[8b	hon-	[8g	hon-	.	.	.	.	.	.	.	.
=81	=81	=81	=81	=81	=81	=81	=81	=81	=81	=81	=81
*>Letter>C	*>Letter>C	*>Letter>C	*>Letter>C	*>Letter>C	*>Letter>C	*>Letter>C	*>Letter>C	*>Letter>C	*>Letter>C	*>Letter>C	*>Letter>C
*>Label>Chorus	*>Label>Chorus	*>Label>Chorus	*>Label>Chorus	*>Label>Chorus	*>Label>Chorus	*>Label>Chorus	*>Label>Chorus	*>Label>Chorus	*>Label>Chorus	*>Label>Chorus	*>Label>Chorus
2b_	_	2g_	_	4.B	Hon-	1GM	newline	voice	.	160.718	G:maj
.	.	.	.	8G	-ky	.	.	.	.	.	.
8b]	_	8g]	_	4G	tonk	.	.	.	.	.	.
8a	_	8e	_	.	.	.	.	.	.	.	.
8g	_	8c	_	4r	.	.	.	.	.	.	.
8e#	_	8c#	_	.	.	.	.	.	.	.	.
=82	=82	=82	=82	=82	=82	=82	=82	=82	=82	=82	=82
[2f#	_	[2d	_	4.A	Hon-	1DM	.	voice	.	162.649	D:maj
.	.	.	.	8F#	-ky	.	.	.	.	.	.
8f#]	_	8d]	_	2F#	tonk	.	.	.	.	.	.
8g	-ky	8d	-ky	.	.	.	.	.	.	.	.
4g	tonk	4B-	tonk	.	.	.	.	.	.	.	.
=83	=83	=83	=83	=83	=83	=83	=83	=83	=83	=83	=83
16b	wo-	16G	wo-	1r	.	1GM	.	voice	.	164.58	G:maj
8.b	-man	8.G	-man	.	.	.	.	.	.	.	.
4r	.	4r	.	.	.	.	.	.	.	.	.
2r	.	2r	.	.	.	.	.	.	.	.	.
=84	=84	=84	=84	=84	=84	=84	=84	=84	=84	=84	=84
1r	.	1r	.	1r	.	1GM	.	voice	.	166.51	G:maj
=85	=85	=85	=85	=85	=85	=85	=85	=85	=85	=85	=85
8b	Give	8g	Give	1r	.	1GM	newline	voice	.	168.441	G:maj
4.b	me	4.g	me	.	.	.	.	.	.	.	.
8g	Give	8d	Give	.	.	.	.	.	.	.	.
4g	me	4d	me	.	.	.	.	.	.	.	.
8r	.	8r	.	.	.	.	.	.	.	.	.
=86	=86	=86	=86	=86	=86	=86	=86	=86	=86	=86	=86
8f#	Give	8d	Give	1r	.	1DM	.	voice	.	170.382	D:maj
4f#	me	4d	me	.	.	.	.	.	.	.	.
8f#	the	8d	the	.	.	.	.	.	.	.	.
8f#	hon-	8d	hon-	.	.	.	.	.	.	.	.
8f#	-ky	8d	-ky	.	.	.	.	.	.	.	.
4d	tonk	8B-	tonk	.	.	.	.	.	.	.	.
.	.	8A	_	.	.	.	.	.	.	.	.
=87	=87	=87	=87	=87	=87	=87	=87	=87	=87	=87	=87
4d	blues	4G	blues	1r	.	4GM	.	voice	.	172.324	G:maj
4r	.	4r	.	.	.	4GM	.	voice	.	172.809	G:maj/3
2r	.	2r	.	.	.	4GM	.	voice	.	173.294	G:maj/4
.	.	.	.	.	.	4GM	.	voice	.	173.78	G:maj/#4
=88	=88	=88	=88	=88	=88	=88	=88	=88	=88	=88	=88
1r	.	1r	.	1r	.	2GM	.	voice	.	174.265	G:maj/5
.	.	.	.	.	.	2GM	.	voice	.	175.236	G:maj
r;	.	r;	.	r;	.	1r;	.	r	.	179.119	N.C.
r;	.	r;	.	r;	.	1r;	.	r	.	182.282	N.C.
*-	*-	*-	*-	*-	*-	*-	*-	*-	*-	*-	*-
!!!BillboardChartDate: 1969/07/19, 1969/10/04
!!!BillboardPeak: 1, 1
!!!BillboardWeeksOnChart: 15, 15
!!!COC: The Rolling Stones
!!!ENC: Nathaniel Condit-Schultz
!!!EST: Awating manual error checking and editing.
!!!OTL: Honky Tonk Women
!!!RDF**chordsym: original McGill chord annotation + (implied pitch class set, with bass pitch in first position)
!!!RDF**harmony: **recip + pitch class of root + harmonic quality
!!!RDF**leadinstrument: original McGill primary instrumentation annotation
!!!RDF**phrase: newline = linebreak in original McGill transcription
!!!RDF**timestamp: McGill audio timestamp in seconds
!!!RDT: 2017/01/12/
!!!SampleActualRank: 79,  6
!!!SampleID#: 229, 1266
!!!SampleTargetRank: 78,  7
